icons/14x14_invoice_outline.svg

<svg width="14" height="14" fill="none" xmlns="http://www.w3.org/2000/svg"><path d="M5 3v8h6V3H5ZM3 13a2 2 0 0 1-2-2V8h2V1h10v10a2 2 0 0 1-2 2H3Z" fill="#000"/><path d="M6 8h4v1H6V8Zm0-3h4v1H6V5Z" fill="#000"/></svg>

<svg xmlns="http://www.w3.org/2000/svg" width="14" height="14" viewBox="0 0 14 14">
  <path d="M5,3 L5,11 L11,11 L11,3 L5,3 Z M3,13 C1.8954305,13 1,12.1045695 1,11 L1,8 L3,8 L3,1 L13,1 L13,11 C13,12.1045695 12.1045695,13 11,13 L3,13 Z"/>
  <path d="M6,8 L10,8 L10,9 L6,9 L6,8 Z M6,5 L10,5 L10,6 L6,6 L6,5 Z"/>
</svg>
